assets/svg/toolbar-center.svg

<svg width="50" height="50" xmlns="http://www.w3.org/2000/svg"><defs><path d="M38.551 17c.801 0 1.449-.896 1.449-2s-.648-2-1.449-2H11.449c-.8 0-1.449.896-1.449 2s.649 2 1.449 2h27.102zm9.362 3H2.087C.935 20 0 20.896 0 22s.935 2 2.087 2h45.826C49.066 24 50 23.104 50 22s-.934-2-2.087-2zm0 14H2.087C.935 34 0 34.896 0 36s.935 2 2.087 2h45.826C49.066 38 50 37.104 50 36s-.934-2-2.087-2zM2.173 10h45.654C49.028 10 50 9.104 50 8s-.972-2-2.173-2H2.173C.973 6 0 6.896 0 8s.973 2 2.173 2zm9.276 35h27.102c.801 0 1.449-.896 1.449-2s-.648-2-1.449-2H11.449c-.8 0-1.449.896-1.449 2s.649 2 1.449 2zM40 29c0 1.104-.648 2-1.449 2H11.449c-.8 0-1.449-.896-1.449-2s.649-2 1.449-2h27.102c.801 0 1.449.896 1.449 2z" id="path-1"/></defs></svg>

<svg width="50px" height="50px" viewBox="0 0 50 50" version="1.1" xmlns="http://www.w3.org/2000/svg" xmlns:xlink="http://www.w3.org/1999/xlink">
    <defs>
        <path d="M38.551,17 C39.352,17 40,16.104 40,15 C40,13.896 39.352,13 38.551,13 L11.449,13 C10.649,13 10,13.896 10,15 C10,16.104 10.649,17 11.449,17 L38.551,17 Z M47.913,20 L2.087,20 C0.935,20 0,20.896 0,22 C0,23.104 0.935,24 2.087,24 L47.913,24 C49.066,24 50,23.104 50,22 C50,20.896 49.066,20 47.913,20 Z M47.913,34 L2.087,34 C0.935,34 0,34.896 0,36 C0,37.104 0.935,38 2.087,38 L47.913,38 C49.066,38 50,37.104 50,36 C50,34.896 49.066,34 47.913,34 Z M2.173,10 L47.827,10 C49.028,10 50,9.104 50,8 C50,6.896 49.028,6 47.827,6 L2.173,6 C0.973,6 0,6.896 0,8 C0,9.104 0.973,10 2.173,10 Z M11.449,45 L38.551,45 C39.352,45 40,44.104 40,43 C40,41.896 39.352,41 38.551,41 L11.449,41 C10.649,41 10,41.896 10,43 C10,44.104 10.649,45 11.449,45 Z M40,29 C40,30.104 39.352,31 38.551,31 L11.449,31 C10.649,31 10,30.104 10,29 C10,27.896 10.649,27 11.449,27 L38.551,27 C39.352,27 40,27.896 40,29 Z" id="path-1"></path>
    </defs>
</svg>
